assets/Backhand index pointing down/Default/Flat/backhand_index_pointing_down_flat_default.svg

<svg width="32" height="32" viewBox="0 0 32 32" fill="none" xmlns="http://www.w3.org/2000/svg">
<path d="M21.697 7.66747C23.4231 11.8832 27.4002 13.5062 28.2752 14.4125C29.1502 15.3187 29.2484 17.0066 28.2752 18.0425C27.0174 19.3812 25.7061 19.0372 24.1814 18.1362C23.6658 17.8315 21.9626 16.6987 21.9626 16.6987V26.9487C21.9626 29.0581 20.7008 29.99 19.5408 29.99C18.3808 29.99 16.9783 28.8237 16.9783 26.9487V22.98C16.9783 22.98 16.367 24.2925 14.5702 24.2925C12.7733 24.2925 12.2595 22.6675 12.2595 22.6675C12.2595 22.6675 11.8767 23.519 10.2048 23.519C8.6267 23.519 7.99218 21.8671 7.99218 21.8671C7.99218 21.8671 7.39232 22.4722 5.98607 22.4722C4.90795 22.4722 3.00952 20.9487 3.00952 19.3081C3.00952 12.2176 3.71122 1.98998 13.1045 1.98998C15.5945 1.97998 19.9709 3.45174 21.697 7.66747Z" fill="#FFC83D"/>
<path d="M17 27.3473C17.161 28.8029 18.1902 29.7562 19.1714 29.9524C18.3531 29.5493 17.9844 29.0379 17.9844 27.6464L17.9844 18.6094C17.9844 17.75 17.0156 17.8125 17.0156 18.6094C17.0156 19.0067 17.0103 19.4947 17 20.0336V27.3473Z" fill="#D67D00"/>
<path d="M8.98438 23.1304C8.28982 22.642 7.99219 21.8672 7.99219 21.8672L7.98438 21.8747V18.5C7.98438 18.2239 8.20823 18 8.48438 18C8.76052 18 8.98438 18.2239 8.98438 18.5L8.98438 23.1304Z" fill="#D67D00"/>
<path d="M13.25 23.9234C12.505 23.4439 12.2595 22.6675 12.2595 22.6675C12.2595 22.6675 12.2565 22.6741 12.25 22.6861V20.5078C12.25 20.2317 12.4739 20.0078 12.75 20.0078C13.0261 20.0078 13.25 20.2317 13.25 20.5078L13.25 23.9234Z" fill="#D67D00"/>
</svg>

<svg xmlns="http://www.w3.org/2000/svg" width="32" height="32" fill="none"><path fill="#FFC83D" d="M21.697 7.667c1.726 4.216 5.703 5.84 6.578 6.745.875.907.973 2.595 0 3.63-1.258 1.34-2.569.995-4.094.094-.515-.305-2.218-1.437-2.218-1.437v10.25c0 2.11-1.262 3.041-2.422 3.041-1.16 0-2.563-1.166-2.563-3.041V22.98s-.611 1.313-2.408 1.313-2.31-1.625-2.31-1.625-.383.851-2.055.851c-1.578 0-2.213-1.652-2.213-1.652s-.6.605-2.006.605c-1.078 0-2.976-1.523-2.976-3.164 0-7.09.701-17.318 10.095-17.318 2.49-.01 6.866 1.462 8.592 5.677Z"/><path fill="#D67D00" d="M17 27.347c.161 1.456 1.19 2.41 2.171 2.605-.818-.403-1.187-.914-1.187-2.306V18.61c0-.859-.968-.797-.968 0 0 .398-.006.886-.016 1.425v7.313ZM8.984 23.13c-.694-.488-.992-1.263-.992-1.263l-.008.008V18.5a.5.5 0 0 1 1 0v4.63ZM13.25 23.923c-.745-.48-.99-1.255-.99-1.255l-.01.018v-2.178a.5.5 0 0 1 1 0v3.415Z"/></svg>
